data/icons/symbolic/outline-symbolic.svg

<?xml version="1.0" encoding="UTF-8" standalone="no"?>
<svg
   xmlns:dc="http://purl.org/dc/elements/1.1/"
   xmlns:cc="http://creativecommons.org/ns#"
   xmlns:rdf="http://www.w3.org/1999/02/22-rdf-syntax-ns#"
   xmlns:svg="http://www.w3.org/2000/svg"
   xmlns="http://www.w3.org/2000/svg"
   xmlns:sodipodi="http://sodipodi.sourceforge.net/DTD/sodipodi-0.dtd"
   xmlns:inkscape="http://www.inkscape.org/namespaces/inkscape"
   inkscape:version="1.0 (4035a4fb49, 2020-05-01)"
   sodipodi:docname="outline-symbolic.svg"
   id="svg6"
   version="1.1"
   width="16"
   height="16">
  <metadata
     id="metadata12">
    <rdf:RDF>
      <cc:Work
         rdf:about="">
        <dc:format>image/svg+xml</dc:format>
        <dc:type
           rdf:resource="http://purl.org/dc/dcmitype/StillImage" />
      </cc:Work>
    </rdf:RDF>
  </metadata>
  <defs
     id="defs10" />
  <sodipodi:namedview
     inkscape:document-rotation="0"
     inkscape:current-layer="svg6"
     inkscape:window-maximized="1"
     inkscape:window-y="0"
     inkscape:window-x="0"
     inkscape:cy="7.2764326"
     inkscape:cx="7.5444438"
     inkscape:zoom="41.7193"
     showgrid="true"
     id="namedview8"
     inkscape:window-height="1020"
     inkscape:window-width="2560"
     inkscape:pageshadow="2"
     inkscape:pageopacity="0"
     guidetolerance="10"
     gridtolerance="10"
     objecttolerance="10"
     borderopacity="1"
     bordercolor="#666666"
     pagecolor="#ffffff">
    <inkscape:grid
       id="grid822"
       type="xygrid" />
  </sodipodi:namedview>
  <path
     inkscape:connector-curvature="0"
     id="path832"
     d="m 9,7 v 1 h 4.998047 V 7 Z"
     style="color:#bebebe;overflow:visible;fill:#000000;stroke-width:0.99999994;marker:none" />
  <path
     inkscape:connector-curvature="0"
     id="path830"
     d="m 5.5029435,6 c -0.277,0 -0.5,0.223 -0.5,0.5 v 2 c 0,0.277 0.223,0.5 0.5,0.5 h 2 c 0.277,0 0.5,-0.223 0.5,-0.5 v -2 c 0,-0.277 -0.223,-0.5 -0.5,-0.5 z"
     style="color:#bebebe;overflow:visible;fill:#000000;marker:none" />
  <path
     id="path828"
     d="M 4.9980469 3 L 4.9980469 4 L 13.998047 4 L 13.998047 3 L 4.9980469 3 z "
     style="color:#bebebe;overflow:visible;fill:#000000;marker:none" />
  <path
     id="path2"
     d="M 1.4980469 2 C 1.2210469 2 0.99804688 2.223 0.99804688 2.5 L 0.99804688 4.5 C 0.99804688 4.777 1.2210469 5 1.4980469 5 L 3.4980469 5 C 3.7750469 5 3.9980469 4.777 3.9980469 4.5 L 3.9980469 2.5 C 3.9980469 2.223 3.7750469 2 3.4980469 2 L 1.4980469 2 z "
     style="color:#bebebe;overflow:visible;fill:#000000;marker:none" />
  <path
     inkscape:connector-curvature="0"
     id="path832-3"
     d="m 9,11 v 1 h 4.998047 v -1 z"
     style="color:#bebebe;overflow:visible;fill:#000000;stroke-width:0.99999994;marker:none" />
  <path
     inkscape:connector-curvature="0"
     id="path830-6"
     d="m 5.5029435,10 c -0.277,0 -0.5,0.223 -0.5,0.5 v 2 c 0,0.277 0.223,0.5 0.5,0.5 h 2 c 0.277,0 0.5,-0.223 0.5,-0.5 v -2 c 0,-0.277 -0.223,-0.5 -0.5,-0.5 z"
     style="color:#bebebe;overflow:visible;fill:#000000;marker:none" />
</svg>

<?xml version="1.0" encoding="UTF-8" standalone="no"?>
<svg
   inkscape:version="1.3.2 (091e20ef0f, 2023-11-25)"
   sodipodi:docname="outline-symbolic.svg"
   id="svg6"
   version="1.1"
   width="16"
   height="16"
   xmlns:inkscape="http://www.inkscape.org/namespaces/inkscape"
   xmlns:sodipodi="http://sodipodi.sourceforge.net/DTD/sodipodi-0.dtd"
   xmlns="http://www.w3.org/2000/svg"
   xmlns:svg="http://www.w3.org/2000/svg"
   xmlns:rdf="http://www.w3.org/1999/02/22-rdf-syntax-ns#"
   xmlns:cc="http://creativecommons.org/ns#"
   xmlns:dc="http://purl.org/dc/elements/1.1/">
  <metadata
     id="metadata12">
    <rdf:RDF>
      <cc:Work
         rdf:about="">
        <dc:format>image/svg+xml</dc:format>
        <dc:type
           rdf:resource="http://purl.org/dc/dcmitype/StillImage" />
      </cc:Work>
    </rdf:RDF>
  </metadata>
  <defs
     id="defs10" />
  <sodipodi:namedview
     inkscape:document-rotation="0"
     inkscape:current-layer="svg6"
     inkscape:window-maximized="1"
     inkscape:window-y="29"
     inkscape:window-x="0"
     inkscape:cy="7.2748105"
     inkscape:cx="7.5504623"
     inkscape:zoom="41.7193"
     showgrid="true"
     id="namedview8"
     inkscape:window-height="944"
     inkscape:window-width="2560"
     inkscape:pageshadow="2"
     inkscape:pageopacity="0"
     guidetolerance="10"
     gridtolerance="10"
     objecttolerance="10"
     borderopacity="1"
     bordercolor="#666666"
     pagecolor="#ffffff"
     inkscape:showpageshadow="0"
     inkscape:pagecheckerboard="1"
     inkscape:deskcolor="#d1d1d1">
    <inkscape:grid
       id="grid822"
       type="xygrid"
       originx="0"
       originy="0"
       spacingy="1"
       spacingx="1"
       units="px"
       visible="true" />
  </sodipodi:namedview>
  <path
     inkscape:connector-curvature="0"
     id="path832"
     d="m 9,7 v 1 h 4.998047 V 7 Z"
     style="color:#bebebe;overflow:visible;fill:#000000;stroke-width:0.99999994;marker:none" />
  <path
     id="path830"
     style="color:#bebebe;overflow:visible;fill:#000000;marker:none"
     d="M 5.5039062 6 C 5.2269065 6 5.0039062 6.2230003 5.0039062 6.5 L 5.0039062 8.5 C 5.0039062 8.7769997 5.2269065 9 5.5039062 9 L 7.5039062 9 C 7.780906 9 8.0039062 8.7769997 8.0039062 8.5 L 8.0039062 6.5 C 8.0039062 6.2230003 7.780906 6 7.5039062 6 L 5.5039062 6 z M 6 7 L 7 7 L 7 8 L 6 8 L 6 7 z " />
  <path
     id="path828"
     d="M 4.9980469 3 L 4.9980469 4 L 13.998047 4 L 13.998047 3 L 4.9980469 3 z "
     style="color:#bebebe;overflow:visible;fill:#000000;marker:none" />
  <path
     id="path2"
     style="color:#bebebe;overflow:visible;fill:#000000;marker:none"
     d="M 1.4980469 2 C 1.2210472 2 0.99804688 2.2230003 0.99804688 2.5 L 0.99804688 4.5 C 0.99804688 4.7769997 1.2210472 5 1.4980469 5 L 3.4980469 5 C 3.7750466 5 3.9980469 4.7769997 3.9980469 4.5 L 3.9980469 2.5 C 3.9980469 2.2230003 3.7750466 2 3.4980469 2 L 1.4980469 2 z M 2 3 L 3 3 L 3 4 L 2 4 L 2 3 z " />
  <path
     inkscape:connector-curvature="0"
     id="path832-3"
     d="m 9,11 v 1 h 4.998047 v -1 z"
     style="color:#bebebe;overflow:visible;fill:#000000;stroke-width:0.99999994;marker:none" />
  <path
     id="path830-6"
     style="color:#bebebe;overflow:visible;fill:#000000;marker:none"
     d="M 5.5039062 10 C 5.2269065 10 5.0039062 10.223 5.0039062 10.5 L 5.0039062 12.5 C 5.0039062 12.777 5.2269065 13 5.5039062 13 L 7.5039062 13 C 7.780906 13 8.0039062 12.777 8.0039062 12.5 L 8.0039062 10.5 C 8.0039062 10.223 7.780906 10 7.5039062 10 L 5.5039062 10 z M 6 11 L 7 11 L 7 12 L 6 12 L 6 11 z " />
</svg>
